X:9808
T:Long Strand
R:reel
S:Kevin Finucane
H:There is another version in Edor, #165.
H:Similar to "Old Gorman's Reel", #603
Z:id:hn-reel-531
M:C|
K:Ddor
AD~D2 A2dc|AD~D2 EDEG|AD~D2 A2dc|1 AcGE EDEG:|2 AcGE EDD2||
c2ec gcec|c2ec dBGB|c2ec gcec|AcGE EDD2|
c2ec gcec|c2ec dBG2|f3d ~e3d|cAGc Addc||
~A3G A2dc|AcGE EDEG|AD~D2 A2dc|1 AcGE EDEG:|2 AcGE EDD2||
c2ec gcec|c2ec dBGB|c2ec gcec|AcGE EDD2|
c2ec gcec|c2ec dcde|f3d ~e3d|cAGc Addc||


